X:1
T:O Dass Ich Tausen Zungen, 98.98.88
T:Johann Balthasar König, 1738
T:O Dass Ich Tausen Zungen, 98.98.88
T:Public Domain
C:Johann Balthasar K&#246;nig, 1738
Z:Public Domain
%%score ( 1 2 ) ( 3 4 )
L:1/8
M:4/4
K:F
V:1 treble 
V:2 treble 
V:3 bass 
V:4 bass 
V:1
 z2 [Fc]2 [FA]2 [Fc]2 | [Fd]2 [Fc]2 (DE) [FA]2 | (F2 E2) F2 [FA]2 | [EG]2 [DF]2 [CG]2 [FA]2 | %4
 [FB]2 [FA]2 [EG]4- | [EG]2 [Fc]2 [FA]2 [Fc]2 | [Fd]2 [Fc]2 (DE) [FA]2 | (F2 E2) F2 [FA]2 | %8
 [EG]2 [DF]2 [CG]2 [FA]2 | [FB]2 [FA]2 [EG]4- | [EG]2 [EG]2 [DG]2 [CG]2 | %11
 [FA]2 [Ec]2 [Fc]2 [D=B]2 | [Ec]6 [Cc]2 | [CA]2 [DF]2 [Fd]2 [GB]2 | [FA]2 [EG]2 [CF]4 |] %15
V:2
 x8 | x4 B2 x2 | G4 F2 x2 | x8 | x8 | x8 | x4 B2 x2 | G4 F2 x2 | x8 | x8 | x8 | x8 | x8 | x8 | %14
 x8 |] %15
V:3
 z2 [F,A,]2 [F,C]2 [A,C]2 | B,2 [F,A,]2 [G,B,]2 [F,C]2 | [C,C]4 [F,A,]2 [F,C]2 | %3
 [C,C]2 [D,A,]2 [E,G,]2 [F,C]2 | [B,,D]2 [F,C]2 [C,C]4- | [C,C]2 [F,A,]2 [F,C]2 [A,C]2 | %6
 B,2 [F,A,]2 [G,B,]2 [F,C]2 | [C,C]4 [F,A,]2 [F,C]2 | [C,C]2 [D,A,]2 [E,G,]2 [F,C]2 | %9
 [B,,D]2 [F,C]2 [C,C]4- | [C,C]2 [C,C]2 [G,=B,]2 [E,G,]2 | [F,C]2 [A,C]2 [F,A,]2 G,2 | %12
 [C,G,]6 [E,G,]2 | F,2 [D,A,]2 [B,,B,]2 [G,,D]2 | [A,,C]2 [C,C]2 [F,,A,]4 |] %15
V:4
 x8 | B,2 x6 | x8 | x8 | x8 | x8 | B,2 x6 | x8 | x8 | x8 | x8 | x6 G,2 | x8 | F,2 x6 | x8 |] %15

